!!!SOCIAL_FUNCTION:	songs of the drum religion
!!!PDT:	1932
!!!OTL: No_104_Song_During_Which_Old_Men_Dance.krn
!!!REG: Wisconsin
!!!LANG: Non-Tone
!!!LING_GROUP: Algonquin
**kern
*staff1
=1-
*clefF4
*k[f#c#g#d#a#]
*M5/8
4r
4r
16c#\LL
16c#\JJ
=2
8.c#\L
16c#\K
8c#\
8.B\
16B\Jk
=3||
*M2/4
2B\
=4
8F#\L
8F#\J
16F#\
16r
16c#\LL
16c#\JJ
=5||
*M5/8
8.c#\L
16c#\K
8c#\
8.B\
16B\Jk
=6||
*M2/4
2B\
=7
8F#\L
8F#\J
8F#\
8r
=8||
*M5/8
8B\L
8.G#\
16G#\K
8B\
8G#\J
=9||
*M3/4
8.F#\L
16F#\Jk
2F#\
=10||
*M2/4
8C#/L
8C#/J
16C#/
16r
16D#\LL
16D#\JJ
=11||
*M5/8
8.D#\L
16D#\K
8C#\
8D#\
8C#\J
=12||
*M2/4
8.BB/L
16BB/Jk
[4BB/
=13||
*M3/4
4BB/]
8FF#/
8r
8r
16BB/LL
16BB/JJ
=14||
*M5/8
8BB/L
8BB/
8GG#/
8BB/
8GG#/J
=15||
*M2/4
8.FF#/L
16FF#/Jk
4FF#/
=16
4FF#/
4FF#/
==
*-
